packages/match-icons/sendgrid/svg/testing.svg

<svg fill="none" height="32" viewBox="0 0 32 32" width="32" xmlns="http://www.w3.org/2000/svg"><g stroke="#394762" stroke-linecap="round" stroke-linejoin="round" stroke-width="1.7"><path d="m2 3h28v26h-28z"/><path d="m2 9h28"/><path d="m16 17v4"/><path d="m14 13h4v4h-4z"/><path d="m14 21h4v4h-4z"/><path d="m6 21h4v4h-4z"/><path d="m22 21h4v4h-4z"/><path d="m14 15h-4c-.53043 0-1.03914.2107-1.41421.5858-.37508.3751-.58579.8838-.58579 1.4142v4"/><path d="m18 15h4c.5304 0 1.0391.2107 1.4142.5858s.5858.8838.5858 1.4142v4"/></g></svg>

<svg width="32" height="32" viewBox="0 0 32 32" fill="none" xmlns="http://www.w3.org/2000/svg">
<path d="M2 3H30V29H2V3Z" stroke="#394762" stroke-width="1.7" stroke-linecap="round" stroke-linejoin="round"/>
<path d="M2 9H30" stroke="#394762" stroke-width="1.7" stroke-linecap="round" stroke-linejoin="round"/>
<path d="M16 17V21" stroke="#394762" stroke-width="1.7" stroke-linecap="round" stroke-linejoin="round"/>
<path d="M14 13H18V17H14V13Z" stroke="#394762" stroke-width="1.7" stroke-linecap="round" stroke-linejoin="round"/>
<path d="M14 21H18V25H14V21Z" stroke="#394762" stroke-width="1.7" stroke-linecap="round" stroke-linejoin="round"/>
<path d="M6 21H10V25H6V21Z" stroke="#394762" stroke-width="1.7" stroke-linecap="round" stroke-linejoin="round"/>
<path d="M22 21H26V25H22V21Z" stroke="#394762" stroke-width="1.7" stroke-linecap="round" stroke-linejoin="round"/>
<path d="M14 15H10C9.46957 15 8.96086 15.2107 8.58579 15.5858C8.21071 15.9609 8 16.4696 8 17V21" stroke="#394762" stroke-width="1.7" stroke-linecap="round" stroke-linejoin="round"/>
<path d="M18 15H22C22.5304 15 23.0391 15.2107 23.4142 15.5858C23.7893 15.9609 24 16.4696 24 17V21" stroke="#394762" stroke-width="1.7" stroke-linecap="round" stroke-linejoin="round"/>
</svg>
